!!!OTL: "Tanzlied" DER MIT DEM SABEL, DER IST MEIN TAUSIGER SCHATZ
!!!ARE: Europa, Mitteleuropa, Deutschland, Schwaben
!!!SCT: Z1265
!!!YEM: Copyright 1995, estate of Helmut Schaffrath.
**kern
*ICvox
*Ivox
*M3/4
*k[f#]
*G:
{2g
16g
16a
16b
16cc
=1
2dd
4b
=2
4g
4a
4d
=3
4f#
8.a
16d
4d}
=4
{2g
16g
16a
16b
16cc
=5
2dd
4b
=6
4g
4a
4f#
=7
2g
4r}
=8
{4.a
8d
4d
=9
4.b
8a
4g
=10
4.a
8d
4d
=11
4.b
8a
4g}
=12
{2g
16g
16a
16b
16cc
=13
2dd
4b
=14
4g
4a
4f#
=15
2g
4r}
==
!!!AGN: Natur und Welt
!!!ONB: ESAC (Essen Associative Code) Database: ZUCCAL
!!!AMT: simple triple
!!!AIN: vox
!!!EED: Helmut Schaffrath
!!!EEV: 1.0
*-
